X:160
T:Copenhagen TS.160
M:3/8
L:1/16
Q:3/8=50
S:Thomas Sands’ MS,1810,Lincolnshire
R:waltz
O:England;Lincolnshire
Z:vmp.Ruairidh Greig, 2011
K:D
f<a|g<b f<a e<g|f<a d2 f<a|e<g A2 c<e|d<f A2 f<a|
g<b f<a e<g|f<a d2 f<a|e<g A2 c<e|d4:|
|:f<d|c<e A2 c<e|d<f A2 f<d|c<e A2 c<e|d4f<a|
g<b f<a e<g|f<a d2 f<a|e<g A2 c<e|d4:|
L:1/8
|:a|baf|dfa|baf|e2a|baf|dfa|e/d/e/f/g/e/|d2:|]

